X: 1
T: Captain Ross
M: 4/4
L: 1/8
R: reel
K: Gmaj
|:d>c|BGdG eGdG|BGB/2c/2d g2 dc|BGdG eGdG|cA=FA c2:|
Bc[|dBGB gBGB|dBGB d3 e|dBGB gBGB|cA=FA c3 e|
dBGB gBGB|dBGB d2 ef|gefd ecdB|cA=FA c2|]
